assets/icons/standard/asset_action_source.svg

<svg data-name="Layer 1" xmlns="http://www.w3.org/2000/svg" width="100" height="100" viewBox="0 0 100 100"><path d="M52.1,67.9h0A15.27,15.27,0,0,1,55,59H37.1a.84.84,0,0,1-.9-.9v-.9a.84.84,0,0,1,.9-.9H57.3a15.35,15.35,0,0,1,2.9-2.1c-.1-.1-.1-.2-.1-.4V41.1a.84.84,0,0,1,.9-.9h1.7a.84.84,0,0,1,.9.9V53a14.3,14.3,0,0,1,9.6.5V26.8a2.43,2.43,0,0,0-2.4-2.4H29.3a2.43,2.43,0,0,0-2.4,2.4V68.3a2.43,2.43,0,0,0,2.4,2.4h5.3v2.5A2.43,2.43,0,0,0,37,75.6h2.8a2.43,2.43,0,0,0,2.4-2.4V70.7H52.5A8.63,8.63,0,0,1,52.1,67.9ZM46.6,54a.84.84,0,0,1-.9.9H44a.84.84,0,0,1-.9-.9V41.1a.84.84,0,0,1,.9-.9h1.7a.84.84,0,0,1,.9.9Zm7.7,0a.84.84,0,0,1-.9.9H50a.84.84,0,0,1-.9-.9V41.1a.84.84,0,0,1,.9-.9h3.4a.84.84,0,0,1,.9.9Zm3.3,0a.9.9,0,0,1-1.8,0V41.1a.9.9,0,1,1,1.8,0ZM36.3,36.8a.84.84,0,0,1,.9-.9H62.9a.84.84,0,0,1,.9.9v.9a.84.84,0,0,1-.9.9H37.1a.84.84,0,0,1-.9-.9v-.9Zm0,4.3a.84.84,0,0,1,.9-.9h3.4a.84.84,0,0,1,.9.9V54a.84.84,0,0,1-.9.9H37.2a.84.84,0,0,1-.9-.9Z" fill="#fff"/><path d="M67.6,55.9a12.12,12.12,0,0,0-12.1,12,12,12,0,0,0,11.9,12,12,12,0,1,0,.2-24Zm8,12.5-5.3,5.4a.67.67,0,0,1-1,0,11,11,0,0,1-1-1.1.67.67,0,0,1,0-1L69.9,70a.45.45,0,0,0-.3-.8H59.9a.75.75,0,0,1-.7-.7V67a.68.68,0,0,1,.7-.7h9.7a.46.46,0,0,0,.3-.8L68.3,64a.67.67,0,0,1,0-1l1-1a.67.67,0,0,1,1,0l5.3,5.5A.56.56,0,0,1,75.6,68.4Z" fill="#fff"/></svg>

<?xml version="1.0"?><svg xmlns="http://www.w3.org/2000/svg" width="100" height="100" viewBox="0 0 100 100"><title></title><path d="m52.1 67.9a15.3 15.3 0 0 1 2.9-8.9h-17.9a0.8 0.8 0 0 1-0.9-0.9v-0.9a0.8 0.8 0 0 1 0.9-0.9h20.2a15.3 15.3 0 0 1 2.9-2.1c-0.1-0.1-0.1-0.2-0.1-0.4v-12.7a0.8 0.8 0 0 1 0.9-0.9h1.7a0.8 0.8 0 0 1 0.9 0.9v11.9a14.3 14.3 0 0 1 9.6 0.5v-26.7a2.4 2.4 0 0 0-2.4-2.4h-41.5a2.4 2.4 0 0 0-2.4 2.4v41.5a2.4 2.4 0 0 0 2.4 2.4h5.3v2.5a2.4 2.4 0 0 0 2.4 2.4h2.8a2.4 2.4 0 0 0 2.4-2.4v-2.5h10.3a8.6 8.6 0 0 1-0.4-2.8z m-5.5-13.9a0.8 0.8 0 0 1-0.9 0.9h-1.7a0.8 0.8 0 0 1-0.9-0.9v-12.9a0.8 0.8 0 0 1 0.9-0.9h1.7a0.8 0.8 0 0 1 0.9 0.9z m7.7 0a0.8 0.8 0 0 1-0.9 0.9h-3.4a0.8 0.8 0 0 1-0.9-0.9v-12.9a0.8 0.8 0 0 1 0.9-0.9h3.4a0.8 0.8 0 0 1 0.9 0.9z m3.3 0a0.9 0.9 0 0 1-1.8 0v-12.9a0.9 0.9 0 1 1 1.8 0z m-21.3-17.2a0.8 0.8 0 0 1 0.9-0.9h25.7a0.8 0.8 0 0 1 0.9 0.9v0.9a0.8 0.8 0 0 1-0.9 0.9h-25.8a0.8 0.8 0 0 1-0.9-0.9v-0.9z m0 4.3a0.8 0.8 0 0 1 0.9-0.9h3.4a0.8 0.8 0 0 1 0.9 0.9v12.9a0.8 0.8 0 0 1-0.9 0.9h-3.4a0.8 0.8 0 0 1-0.9-0.9z m31.3 14.8a12.1 12.1 0 0 0-12.1 12 12 12 0 0 0 11.9 12 12 12 0 1 0 0.2-24z m8 12.5l-5.3 5.4a0.7 0.7 0 0 1-1 0 11 11 0 0 1-1-1.1 0.7 0.7 0 0 1 0-1l1.6-1.7a0.5 0.5 0 0 0-0.3-0.8h-9.7a0.8 0.8 0 0 1-0.7-0.7v-1.5a0.7 0.7 0 0 1 0.7-0.7h9.7a0.5 0.5 0 0 0 0.3-0.8l-1.6-1.5a0.7 0.7 0 0 1 0-1l1-1a0.7 0.7 0 0 1 1 0l5.3 5.5a0.6 0.6 0 0 1 0 0.9z" fill="#fff"></path></svg>
